packages/elvis-assets-icons/icons/svg/src/refresh.svg

<svg width="24" height="24" viewBox="0 0 24 24" fill="none" xmlns="http://www.w3.org/2000/svg">
<path d="M11.1928 23.25C12.6734 23.25 14.1188 22.9595 15.4893 22.3882C15.6871 22.3056 15.841 22.1513 15.9223 21.953C16.0035 21.7546 16.0035 21.536 15.9212 21.3377C15.7961 21.0364 15.5053 20.8424 15.1803 20.8424C15.0745 20.8424 14.9708 20.8628 14.8735 20.9035C13.6986 21.3934 12.4607 21.6421 11.1906 21.6421C8.70723 21.6421 6.35211 20.6945 4.55825 18.974C2.71093 17.201 1.66219 14.8096 1.60553 12.239C1.54887 9.66853 2.49178 7.23202 4.25891 5.3797C6.08272 3.46844 8.54367 2.41579 11.1896 2.41579C13.673 2.41579 16.027 3.36124 17.8166 5.07956C19.541 6.73356 20.5833 8.95355 20.7522 11.3322C20.9019 13.4761 20.3513 15.5642 19.1893 17.3232V14.4076C19.1893 13.9638 18.8301 13.6036 18.3875 13.6036C17.9449 13.6036 17.5857 13.9638 17.5857 14.4076V19.2313C17.5857 19.6751 17.9449 20.0353 18.3875 20.0353H18.6419C18.659 20.0374 18.6751 20.0385 18.69 20.0385C18.7082 20.0385 18.7264 20.0374 18.7445 20.0353H23.1982C23.6408 20.0353 24 19.6751 24 19.2313C24 18.7875 23.6408 18.4273 23.1982 18.4273H20.3802C21.7251 16.4893 22.4306 14.1578 22.3783 11.7781C22.3729 11.5305 22.3569 11.2711 22.328 10.9624L22.3205 10.8809C22.3141 10.8101 22.3077 10.7405 22.3002 10.6697L22.2938 10.6215C21.9709 8.04347 20.7736 5.65305 18.9177 3.87256C16.8181 1.85946 14.06 0.75 11.1522 0.75C9.67152 0.75 8.22509 1.03835 6.85564 1.60755C6.74873 1.6515 6.65466 1.71796 6.57768 1.8005C5.26703 2.39221 4.09749 3.22189 3.10007 4.26703C-1.16652 8.73809 -1.00937 15.8568 3.44964 20.1349C5.54284 22.1427 8.29244 23.2489 11.1906 23.2489H11.1928V23.25Z" fill="black"/>
</svg>

<svg width="24" height="24" fill="none" xmlns="http://www.w3.org/2000/svg"><path d="M11.193 23.25c1.48 0 2.926-.29 4.296-.862a.803.803 0 00-.616-1.485 9.518 9.518 0 01-3.682.74 9.538 9.538 0 01-6.633-2.669 9.564 9.564 0 01-2.952-6.735 9.566 9.566 0 012.653-6.86 9.493 9.493 0 016.93-2.963c2.484 0 4.838.945 6.628 2.664a9.59 9.59 0 012.935 6.252 9.608 9.608 0 01-1.563 5.991v-2.915a.803.803 0 00-.802-.804.803.803 0 00-.801.804v4.823c0 .444.359.804.802.804h.254a.397.397 0 00.102 0h4.454a.803.803 0 000-1.608H20.38a11.241 11.241 0 001.998-6.649 11.27 11.27 0 00-.05-.816l-.008-.081c-.006-.07-.012-.14-.02-.211l-.006-.049a11.31 11.31 0 00-3.376-6.748A11.171 11.171 0 0011.152.75c-1.48 0-2.927.288-4.296.858a.792.792 0 00-.278.192A11.099 11.099 0 003.1 4.268c-4.267 4.471-4.11 11.59.35 15.868a11.134 11.134 0 007.74 3.114h.003v.001z" fill="#000"/></svg>
